X: 4
T: The Glass Of Beer
R: reel
M: 4/4
L: 1/8
K: Bmin
de|fB B2 fBaB|fB B2 e2 de|fB B2 f3e|dfaf e2 de|
fB B2 fBaB|fB B2 e2 de|fB B2 f3e|dfaf e2 fe||
d3e f3e|defd edBA|d3e f3e|dfaf e2 fe|
d3e f3e|defd edBA|d3e f3e|dfaf e2 de||


Tune 188	Setting 26518

